X:32
T:"The Breton Mazurka"
M:3/4
L:1/8
R:Mazurka
K:G
|:D2 GF G2|D2 BA B2|cBA G F2|AGF E D2|
|D2 GF G2|D2 BA B2|cBA GFA|1 G2 .G z3:|2 G2 G Bc|
|: d2 de dc |B2B2 AB|c2 cd cB |A2 A2 Bc|
|d2 de dc |B2B2 AB|c2A2F2|1 G2 G2 Bc:|2 G2 .G z3|
